;FLAVOR:Marlin
;TIME:1473
;Filament used: 0.889451m
;Layer height: 0.15
;Generated with Cura_SteamEngine 3.4.1
M190 S60
M104 S200
M109 S200
M82 ;absolute extrusion mode
G92 E0 ;zero the extruded length
G1 X190 Y0 F7000 ;move to priming position
G1 Z2 ;raise bed
G1 F200 E10 ;extrude 10 mm of feed stock
G1 Z15 ;raise bed after priming
G92 E0 ;zero the extruded length again
G1 F7000;
G92 E0
G1 F1500 E-1.5
;LAYER_COUNT:33
;LAYER:0
M107
M204 S270
G0 F1440 X78.291 Y78.19 Z0.31
;TYPE:SKIRT
G1 F1500 E0.06236
G1 F900 X78.772 Y77.716 E0.11563
G1 X79.305 Y77.303 E0.16881
G1 X79.884 Y76.956 E0.22206
G1 X80.5 Y76.68 E0.2753
G1 X81.144 Y76.478 E0.32854
G1 X81.808 Y76.354 E0.38181
G1 X82.522 Y76.309 E0.43824
G1 X114.479 Y76.31 E2.9589
G1 X115.153 Y76.35 E3.01215
G1 X115.817 Y76.469 E3.06536
G1 X116.463 Y76.666 E3.11863
G1 X117.081 Y76.938 E3.17189
G1 X117.662 Y77.281 E3.22511
G1 X118.199 Y77.691 E3.2784
G1 X118.683 Y78.161 E3.33161
G1 X119.109 Y78.685 E3.38488
G1 X119.469 Y79.255 E3.43806
G1 X119.76 Y79.865 E3.49136
G1 X119.976 Y80.504 E3.54457
G1 X120.116 Y81.164 E3.59779
G1 X120.178 Y81.913 E3.65707
G1 X120.225 Y84.675 E3.87495
G1 X120.53 Y90.051 E4.29968
G1 X121.133 Y95.363 E4.72136
G1 X122.041 Y100.661 E5.14534
G1 X122.584 Y103.185 E5.34898
G1 X123.221 Y105.784 E5.56004
G1 X124.473 Y110.189 E5.92126
G1 X124.619 Y110.848 E5.9745
G1 X124.69 Y111.747 E6.04563
G1 X124.69 Y113.979 E6.22168
G1 X124.65 Y114.653 E6.27494
G1 X124.531 Y115.317 E6.32814
G1 X124.334 Y115.963 E6.38141
G1 X124.062 Y116.58 E6.4346
G1 X123.719 Y117.162 E6.48789
G1 X123.309 Y117.698 E6.54111
G1 X122.839 Y118.183 E6.59438
G1 X122.315 Y118.608 E6.6476
G1 X121.745 Y118.969 E6.70082
G1 X121.136 Y119.26 E6.75406
G1 X120.3 Y119.526 E6.82326
G1 X116.027 Y120.535 E7.16956
G1 X115.362 Y120.651 E7.22281
G1 X114.717 Y120.688 E7.27377
G1 X82.307 Y120.69 E9.83015
G1 X81.634 Y120.65 E9.88333
G1 X80.999 Y120.538 E9.93419
G1 X76.701 Y119.525 E10.28249
G1 X76.055 Y119.332 E10.33567
G1 X75.435 Y119.063 E10.38898
G1 X74.852 Y118.723 E10.44221
G1 X74.313 Y118.317 E10.49544
G1 X73.826 Y117.849 E10.54871
G1 X73.398 Y117.328 E10.60189
G1 X73.034 Y116.759 E10.65517
G1 X72.74 Y116.152 E10.70837
G1 X72.52 Y115.514 E10.7616
G1 X72.377 Y114.854 E10.81487
G1 X72.309 Y113.972 E10.88464
G1 X72.311 Y111.743 E11.06046
G1 X72.352 Y111.069 E11.11372
G1 X72.518 Y110.224 E11.18164
G1 X74.095 Y104.539 E11.64699
G1 X75.231 Y99.278 E12.07152
G1 X75.662 Y96.752 E12.27364
G1 X76.345 Y91.419 E12.69773
G1 X76.727 Y86.056 E13.12181
G1 X76.824 Y81.876 E13.4516
G1 X76.879 Y81.203 E13.50487
G1 X77.014 Y80.542 E13.55808
G1 X77.226 Y79.901 E13.61133
G1 X77.512 Y79.29 E13.66454
G1 X77.869 Y78.717 E13.71779
G1 X78.291 Y78.19 E13.77105
G0 F1440 X78.878 Y78.441
G1 F900 X79.352 Y78.014 E13.82137
G1 X79.876 Y77.649 E13.87174
G1 X80.442 Y77.352 E13.92215
G1 X81.04 Y77.129 E13.9725
G1 X81.661 Y76.982 E14.02283
G1 X82.522 Y76.909 E14.09099
G1 X114.479 Y76.91 E16.61164
G1 X115.116 Y76.95 E16.66198
G1 X115.744 Y77.069 E16.7124
G1 X116.351 Y77.266 E16.76274
G1 X116.929 Y77.537 E16.81309
G1 X117.469 Y77.878 E16.86346
G1 X117.961 Y78.284 E16.91378
G1 X118.4 Y78.748 E16.96416
G1 X118.776 Y79.264 E17.01452
G1 X119.086 Y79.822 E17.06487
G1 X119.323 Y80.415 E17.11524
G1 X119.484 Y81.033 E17.16561
G1 X119.578 Y81.923 E17.2362
G1 X119.625 Y84.693 E17.45472
G1 X119.933 Y90.119 E17.8834
G1 X120.535 Y95.425 E18.3046
G1 X121.452 Y100.771 E18.73243
G1 X122.007 Y103.35 E18.94051
G1 X122.638 Y105.926 E19.1497
G1 X123.896 Y110.353 E19.51271
G1 X124.032 Y110.977 E19.56309
G1 X124.09 Y111.747 E19.62399
G1 X124.09 Y113.979 E19.80005
G1 X124.05 Y114.616 E19.85039
G1 X123.931 Y115.243 E19.90073
G1 X123.734 Y115.851 E19.95114
G1 X123.463 Y116.429 E20.00149
G1 X123.122 Y116.968 E20.0518
G1 X122.716 Y117.461 E20.10218
G1 X122.252 Y117.9 E20.15256
G1 X121.736 Y118.276 E20.20292
G1 X121.178 Y118.586 E20.25327
G1 X120.585 Y118.823 E20.30364
G1 X120.162 Y118.942 E20.3383
G1 X115.889 Y119.951 E20.68461
G1 X115.26 Y120.059 E20.73495
G1 X114.717 Y120.088 E20.77784
G1 X82.307 Y120.09 E23.33422
G1 X81.67 Y120.05 E23.38456
G1 X81.137 Y119.954 E23.42728
G1 X76.839 Y118.941 E23.77558
G1 X76.228 Y118.756 E23.82594
G1 X75.645 Y118.496 E23.87629
G1 X75.099 Y118.165 E23.92665
G1 X74.598 Y117.769 E23.97702
G1 X74.151 Y117.313 E24.02739
G1 X73.765 Y116.805 E24.07771
G1 X73.445 Y116.252 E24.12811
G1 X73.196 Y115.664 E24.17847
G1 X73.023 Y115.05 E24.22879
G1 X72.928 Y114.418 E24.2792
G1 X72.909 Y113.972 E24.31441
G1 X72.911 Y111.743 E24.49022
G1 X72.952 Y111.106 E24.54057
G1 X73.097 Y110.385 E24.59858
G1 X74.676 Y104.693 E25.0645
G1 X75.821 Y99.388 E25.49258
G1 X76.254 Y96.855 E25.69527
G1 X76.944 Y91.469 E26.12357
G1 X77.325 Y86.112 E26.54718
G1 X77.423 Y81.89 E26.88028
G1 X77.478 Y81.254 E26.93063
G1 X77.612 Y80.63 E26.98098
G1 X77.823 Y80.027 E27.03137
G1 X78.107 Y79.456 E27.08167
G1 X78.461 Y78.924 E27.13207
G1 X78.878 Y78.441 E27.1824
G0 F1440 X79.052 Y79.144
G1 F900 X79.463 Y78.708 E27.22966
G1 X79.929 Y78.331 E27.27694
G1 X80.442 Y78.019 E27.3243
G1 X80.991 Y77.778 E27.37159
G1 X81.567 Y77.612 E27.41888
G1 X82.16 Y77.524 E27.46616
G1 X82.522 Y77.509 E27.49474
G1 X114.479 Y77.51 E30.01539
G1 X115.077 Y77.55 E30.06267
G1 X115.665 Y77.669 E30.10999
G1 X116.232 Y77.865 E30.1573
G1 X116.767 Y78.135 E30.20457
G1 X117.262 Y78.474 E30.2519
G1 X117.708 Y78.875 E30.2992
G1 X118.096 Y79.333 E30.34655
G1 X118.42 Y79.837 E30.39381
G1 X118.674 Y80.38 E30.44109
G1 X118.853 Y80.953 E30.48844
G1 X118.955 Y81.544 E30.53575
G1 X118.978 Y81.934 E30.56656
G1 X119.025 Y84.712 E30.78571
G1 X119.334 Y90.166 E31.21659
G1 X119.943 Y95.524 E31.64194
G1 X120.861 Y100.881 E32.07064
G1 X121.414 Y103.448 E32.27776
G1 X122.062 Y106.094 E32.49263
G1 X123.319 Y110.517 E32.85532
G1 X123.444 Y111.103 E32.90258
G1 X123.49 Y111.747 E32.9535
G1 X123.49 Y113.979 E33.12956
G1 X123.45 Y114.577 E33.17683
G1 X123.331 Y115.165 E33.22415
G1 X123.135 Y115.732 E33.27147
G1 X122.865 Y116.267 E33.31874
G1 X122.526 Y116.762 E33.36606
G1 X122.125 Y117.208 E33.41337
G1 X121.668 Y117.596 E33.46065
G1 X121.163 Y117.92 E33.50798
G1 X120.62 Y118.174 E33.55526
G1 X120.024 Y118.359 E33.60449
G1 X115.751 Y119.368 E33.95079
G1 X115.16 Y119.466 E33.99805
G1 X114.717 Y119.488 E34.03303
G1 X82.307 Y119.49 E36.58942
G1 X81.709 Y119.45 E36.63669
G1 X81.275 Y119.37 E36.6715
G1 X76.977 Y118.357 E37.0198
G1 X76.403 Y118.181 E37.06715
G1 X75.859 Y117.93 E37.11441
G1 X75.352 Y117.609 E37.16174
G1 X74.893 Y117.224 E37.209
G1 X74.489 Y116.78 E37.25634
G1 X74.147 Y116.287 E37.30367
G1 X73.875 Y115.753 E37.35094
G1 X73.675 Y115.188 E37.39822
G1 X73.552 Y114.601 E37.44552
G1 X73.509 Y113.973 E37.49517
G1 X73.511 Y111.744 E37.67099
G1 X73.551 Y111.146 E37.71826
G1 X73.675 Y110.545 E37.76666
G1 X75.258 Y104.839 E38.23373
G1 X76.41 Y99.503 E38.66431
G1 X76.852 Y96.913 E38.87156
G1 X77.539 Y91.551 E39.29795
G1 X77.925 Y86.127 E39.72686
G1 X78.023 Y81.904 E40.06004
G1 X78.077 Y81.307 E40.10732
G1 X78.21 Y80.722 E40.15464
G1 X78.419 Y80.16 E40.20194
G1 X78.702 Y79.631 E40.24926
G1 X79.052 Y79.144 E40.29656
G0 F1440 X79.641 Y79.38
G1 F900 X80.046 Y78.996 E40.34058
G1 X80.501 Y78.673 E40.3846
G1 X80.998 Y78.419 E40.42862
G1 X81.526 Y78.238 E40.47265
G1 X82.075 Y78.135 E40.51671
G1 X82.522 Y78.109 E40.55202
G1 X114.479 Y78.11 E43.07268
G1 X115.036 Y78.15 E43.11672
G1 X115.581 Y78.269 E43.16072
G1 X116.104 Y78.465 E43.20478
G1 X116.594 Y78.733 E43.24883
G1 X117.04 Y79.068 E43.29283
G1 X117.433 Y79.464 E43.33683
G1 X117.767 Y79.912 E43.38091
G1 X118.032 Y80.403 E43.42492
G1 X118.226 Y80.927 E43.46899
G1 X118.342 Y81.473 E43.51302
G1 X118.378 Y81.944 E43.55028
G1 X118.425 Y84.731 E43.77014
G1 X118.736 Y90.215 E44.20339
G1 X119.348 Y95.606 E44.63135
G1 X120.271 Y100.987 E45.06198
G1 X120.836 Y103.613 E45.27385
G1 X121.485 Y106.261 E45.48889
G1 X122.741 Y110.681 E45.85133
G1 X122.855 Y111.227 E45.89533
G1 X122.89 Y111.747 E45.93643
G1 X122.89 Y113.979 E46.11249
G1 X122.85 Y114.536 E46.15653
G1 X122.731 Y115.081 E46.20053
G1 X122.535 Y115.604 E46.24459
G1 X122.267 Y116.093 E46.28857
G1 X121.932 Y116.54 E46.33263
G1 X121.536 Y116.933 E46.37664
G1 X121.088 Y117.267 E46.42071
G1 X120.597 Y117.532 E46.46472
G1 X119.886 Y117.775 E46.52399
G1 X115.613 Y118.784 E46.8703
G1 X115.062 Y118.873 E46.91432
G1 X114.717 Y118.888 E46.94156
G1 X82.307 Y118.89 E49.49794
G1 X81.75 Y118.85 E49.54199
G1 X81.412 Y118.786 E49.56913
G1 X77.114 Y117.773 E49.91743
G1 X76.582 Y117.606 E49.96141
G1 X76.078 Y117.365 E50.00547
G1 X75.614 Y117.055 E50.04949
G1 X75.199 Y116.682 E50.0935
G1 X74.842 Y116.253 E50.13752
G1 X74.549 Y115.777 E50.18161
G1 X74.328 Y115.265 E50.22559
G1 X74.182 Y114.726 E50.26964
G1 X74.109 Y113.974 E50.32924
G1 X74.111 Y111.745 E50.50505
G1 X74.151 Y111.188 E50.5491
G1 X74.253 Y110.705 E50.58804
G1 X75.844 Y104.972 E51.05732
G1 X77 Y99.612 E51.48982
G1 X77.443 Y97.019 E51.69731
G1 X78.138 Y91.598 E52.1284
G1 X78.524 Y86.163 E52.55817
G1 X78.623 Y81.918 E52.8931
G1 X78.676 Y81.362 E52.93715
G1 X78.808 Y80.82 E52.98115
G1 X79.015 Y80.302 E53.02515
G1 X79.295 Y79.819 E53.06919
G1 X79.641 Y79.38 E53.11327
G0 F1440 X80.228 Y79.637
G1 F900 X80.623 Y79.31 E53.15372
G1 X81.065 Y79.048 E53.19425
G1 X81.542 Y78.858 E53.23475
G1 X82.042 Y78.744 E53.2752
G1 X82.522 Y78.709 E53.31316
G1 X114.479 Y78.71 E55.83381
G1 X114.991 Y78.75 E55.87432
G1 X115.49 Y78.869 E55.91478
G1 X115.965 Y79.064 E55.95529
G1 X116.404 Y79.33 E55.99577
G1 X116.797 Y79.661 E56.0363
G1 X117.133 Y80.049 E56.07679
G1 X117.405 Y80.484 E56.11725
G1 X117.606 Y80.957 E56.15779
G1 X117.732 Y81.455 E56.19831
G1 X117.779 Y81.954 E56.23784
G1 X117.827 Y84.775 E56.46038
G1 X118.138 Y90.264 E56.89403
G1 X118.753 Y95.685 E57.32436
G1 X119.686 Y101.124 E57.75964
G1 X120.249 Y103.737 E57.97047
G1 X120.902 Y106.404 E58.18705
G1 X122.164 Y110.845 E58.55121
G1 X122.266 Y111.348 E58.59169
G1 X122.29 Y111.747 E58.62322
G1 X122.29 Y113.979 E58.79927
G1 X122.25 Y114.491 E58.83978
G1 X122.131 Y114.99 E58.88024
G1 X121.936 Y115.465 E58.92074
G1 X121.67 Y115.904 E58.96123
G1 X121.339 Y116.297 E59.00176
G1 X120.951 Y116.633 E59.04224
G1 X120.516 Y116.905 E59.08271
G1 X120.043 Y117.106 E59.12325
G1 X119.748 Y117.191 E59.14746
G1 X115.475 Y118.2 E59.49377
G1 X114.717 Y118.288 E59.55396
G1 X82.307 Y118.29 E62.11034
G1 X81.55 Y118.202 E62.17045
G1 X77.252 Y117.189 E62.51875
G1 X76.763 Y117.033 E62.55924
G1 X76.304 Y116.802 E62.59977
G1 X75.886 Y116.504 E62.64026
G1 X75.52 Y116.144 E62.68076
G1 X75.214 Y115.732 E62.72124
G1 X74.976 Y115.277 E62.76174
G1 X74.811 Y114.791 E62.80222
G1 X74.723 Y114.285 E62.84273
G1 X74.709 Y113.974 E62.86729
G1 X74.711 Y111.745 E63.0431
G1 X74.751 Y111.233 E63.08361
G1 X74.831 Y110.866 E63.11324
G1 X76.425 Y105.122 E63.58342
G1 X77.589 Y99.727 E64.01875
G1 X78.037 Y97.101 E64.22888
G1 X78.734 Y91.664 E64.66124
G1 X79.124 Y86.177 E65.09512
G1 X79.223 Y81.932 E65.43005
G1 X79.275 Y81.421 E65.47056
G1 X79.405 Y80.925 E65.511
G1 X79.611 Y80.454 E65.55155
G1 X79.887 Y80.022 E65.59199
G1 X80.228 Y79.637 E65.63255
G1 F1500 E64.13255
G0 F1440 X80.228 Y112.593
G0 X78.894 Y113.093
G0 X78.824 Y113.163
;TYPE:WALL-INNER
G1 F1500 E65.69492
G1 F900 X78.824 Y112.573 E65.74145
G1 X80.392 Y112.573 E65.86513
G1 X80.392 Y113.163 E65.91167
G1 X78.824 Y113.163 E66.03349
G0 F1440 X78.286 Y113.701
;TYPE:WALL-OUTER
G1 F900 X78.286 Y112.035 E66.14847
G1 X80.93 Y112.035 E66.33095
G1 X80.93 Y113.701 E66.44593
G1 X78.286 Y113.701 E66.62841
G0 F1440 X78.286 Y113.501
G0 X78.863 Y113.124
G1 F1500 E65.12841
G0 F1440 X78.924 Y113.124
G0 X80.378 Y113.149
G0 X83.354 Y113.474
G0 X91.495 Y114.106
G0 X91.565 Y114.176
;TYPE:WALL-INNER
G1 F1500 E66.69078
G1 F900 X83.336 Y114.176 E67.33985
G1 X83.336 Y113.48 E67.39475
G1 X83.284 Y113.416 E67.40125
G1 X83.336 Y113.364 E67.40705
G1 X83.336 Y112.356 E67.48656
G1 X83.293 Y112.313 E67.49136
G1 X83.336 Y112.263 E67.49656
G1 X83.336 Y111.282 E67.57394
G1 X83.243 Y111.173 E67.58524
G1 X83.173 Y111.092 E67.59368
G1 X83.336 Y111.092 E67.59783
G1 X83.336 Y82.824 E69.82751
G1 X113.664 Y82.824 E72.21968
G1 X113.664 Y104.194 E73.90527
G1 X113.664 Y105.961 E74.04464
G1 X113.664 Y105.982 E74.0463
G1 X113.664 Y111.169 E74.45543
G1 X113.768 Y111.16 E74.46366
G1 X113.72 Y111.216
G1 X113.664 Y111.281 E74.46871
G1 X113.664 Y112.263 E74.54617
G1 X113.707 Y112.314 E74.55143
G1 X113.661 Y112.36 E74.55656
G1 X113.671 Y113.373 E74.63647
G1 X113.704 Y113.405 E74.64009
G1 X113.671 Y113.443 E74.64406
G1 X113.663 Y114.176 E74.70188
G1 X105.435 Y114.176 E75.35088
G1 X105.435 Y108.818 E75.7735
G1 X103.924 Y108.818 E75.89268
G1 X103.506 Y108.818 E75.92565
G1 X102.874 Y108.818 E75.9755
G1 X102.663 Y108.818 E75.99214
G1 X102.142 Y108.818 E76.03324
G1 X101.767 Y108.818 E76.06282
G1 X101.542 Y108.818 E76.08056
G1 X95.626 Y108.818 E76.5472
G1 X95.278 Y108.818 E76.57465
G1 X94.699 Y108.818 E76.62032
G1 X94.088 Y108.818 E76.66851
G1 X93.724 Y108.818 E76.69722
G1 X93.404 Y108.818 E76.72246
G1 X91.565 Y108.818 E76.86751
G1 X91.565 Y114.176 E77.29013
G0 F1440 X92.103 Y113.685
;TYPE:WALL-OUTER
G1 F900 X104.897 Y113.685 E78.17314
G1 X104.897 Y109.356 E78.47191
G1 X92.103 Y109.356 E79.35491
G1 X92.103 Y113.685 E79.65369
G0 F1440 X92.303 Y113.685
G0 X91.465 Y113.685
G0 X91.537 Y108.79
G0 X108.918 Y108.395
G0 X108.988 Y108.325
;TYPE:WALL-INNER
G1 F900 X111.042 Y108.325 E79.8157
G1 X113.068 Y105.976 E80.06037
G1 X113.081 Y105.961 E80.06192
G1 X113.081 Y104.194 E80.19757
G1 X111.44 Y104.194 E80.32701
G1 X111.44 Y103.459 E80.38498
G1 X108.988 Y103.459 E80.57838
G1 X108.988 Y104.194 E80.63636
G1 X108.529 Y104.194 E80.67256
G1 X108.529 Y104.603 E80.70482
G1 X108.529 Y106.463 E80.85153
G1 X108.988 Y106.463 E80.88774
G1 X108.988 Y108.325 E81.03461
G0 F1440 X109.526 Y107.787
;TYPE:WALL-OUTER
G1 F900 X110.796 Y107.787 E81.12226
G1 X112.543 Y105.761 E81.30689
G1 X112.543 Y104.732 E81.37791
G1 X110.902 Y104.732 E81.49117
G1 X110.902 Y103.997 E81.54189
G1 X109.526 Y103.997 E81.63686
G1 X109.526 Y104.732 E81.68759
G1 X109.067 Y104.732 E81.71927
G1 X109.067 Y105.925 E81.8016
G1 X109.526 Y105.925 E81.83328
G1 X109.526 Y107.787 E81.96179
G0 F1440 X109.726 Y107.787
G0 X109.726 Y108.364
G0 X109.726 Y108.425
G0 X108.96 Y108.353
G0 X105.006 Y106.883
G0 X104.934 Y105.924
G0 X105.034 Y105.924
;TYPE:WALL-INNER
G1 F900 X105.034 Y106.855 E82.03523
G1 X108.372 Y106.855 E82.29852
G1 X108.372 Y106.463 E82.32145
G1 X108.372 Y104.603 E82.3599
G1 X105.034 Y104.603 E82.62319
G1 X105.034 Y105.924 E82.72739
G0 F1440 X105.572 Y106.317
;TYPE:WALL-OUTER
G1 F900 X107.834 Y106.317 E82.8835
G1 X107.834 Y105.141 E82.96467
G1 X105.572 Y105.141 E83.12078
G1 X105.572 Y106.317 E83.20195
G0 F1440 X105.772 Y106.317
G0 X105.772 Y106.894
G0 X104.664 Y106.855
;TYPE:WALL-INNER
G1 F900 X104.664 Y105.924 E83.24731
G1 X104.746 Y105.924 E83.25377
G1 X104.746 Y104.603 E83.30387
G1 X104.746 Y103.867 E83.36192
G1 X103.971 Y103.541 E83.42824
G1 X103.359 Y103.415 E83.47753
G1 X102.717 Y103.376 E83.52826
G1 X102.216 Y103.416 E83.5679
G1 X101.855 Y103.488 E83.59694
G1 X101.504 Y103.623 E83.6266
G1 X101.159 Y103.836 E83.65858
G1 X100.933 Y104.043 E83.68275
G1 X100.648 Y104.378 E83.71745
G1 X100.533 Y104.724 E83.7462
G1 X100.457 Y104.951 E83.76509
G1 X100.457 Y105.279 E83.79096
G1 X100.487 Y105.666 E83.82157
G1 X100.653 Y106.036 E83.85356
G1 X100.688 Y106.08 E83.858
G1 X100.538 Y106.498 E83.89302
G1 X100.54 Y106.852 E83.92095
G1 X100.541 Y106.891 E83.92402
G1 X100.579 Y107.255 E83.95289
G1 X100.921 Y107.799 E84.00358
G1 X101.267 Y108.073 E84.03839
G1 X101.448 Y108.182 E84.05505
G1 X101.556 Y108.222 E84.06414
G1 X101.767 Y108.299 E84.08069
G1 X102.142 Y108.369 E84.10507
G1 X102.663 Y108.407 E84.13467
G1 X102.874 Y108.407 E84.14609
G1 X103.506 Y108.328 E84.18393
G1 X103.91 Y108.221 E84.21392
G1 X104.664 Y108.021 E84.27545
G1 X104.664 Y106.855 E84.36742
G0 F1440 X103.421 Y106.53
;TYPE:WALL-OUTER
G1 F900 X103.421 Y106.399 E84.37646
G1 X103.421 Y106.171 E84.39219
G1 X103.421 Y105.644 E84.42857
G1 X103.421 Y105.388 E84.44623
G1 X103.4 Y105.388 E84.44768
G1 X103.327 Y105.388 E84.45272
G1 X103.079 Y105.387 E84.46984
G1 X102.862 Y105.385 E84.48482
G1 X102.813 Y105.384 E84.4882
