;FLAVOR:Marlin
;TIME:1744
;Filament used: 1.01719m
;Layer height: 0.15
;Generated with Cura_SteamEngine 3.4.1
M190 S60
M104 S200
M109 S200
M82 ;absolute extrusion mode
G92 E0 ;zero the extruded length
G1 X190 Y0 F7000 ;move to priming position
G1 Z2 ;raise bed
G1 F200 E10 ;extrude 10 mm of feed stock
G1 Z15 ;raise bed after priming
G92 E0 ;zero the extruded length again
G1 F7000;
G92 E0
G1 F1500 E-1.5
;LAYER_COUNT:66
;LAYER:0
M107
M204 S270
G0 F1440 X75.66 Y76.958 Z0.31
;TYPE:SKIRT
G1 F1500 E0.06236
G1 F900 X76.184 Y76.533 E0.11558
G1 X76.754 Y76.172 E0.1688
G1 X77.363 Y75.881 E0.22204
G1 X78.003 Y75.665 E0.27531
G1 X78.663 Y75.525 E0.32853
G1 X79.509 Y75.462 E0.39544
G1 X117.491 Y75.463 E3.39133
G1 X118.165 Y75.503 E3.44458
G1 X118.829 Y75.622 E3.49779
G1 X119.475 Y75.819 E3.55106
G1 X120.093 Y76.091 E3.60432
G1 X120.674 Y76.434 E3.65754
G1 X121.211 Y76.844 E3.71083
G1 X121.695 Y77.314 E3.76404
G1 X122.121 Y77.838 E3.81731
G1 X122.481 Y78.408 E3.87049
G1 X122.772 Y79.018 E3.9238
G1 X122.988 Y79.657 E3.977
G1 X123.128 Y80.317 E4.03022
G1 X123.191 Y81.163 E4.09713
G1 X123.191 Y115.838 E6.83217
G1 X123.151 Y116.512 E6.88543
G1 X123.032 Y117.176 E6.93863
G1 X122.835 Y117.822 E6.99191
G1 X122.563 Y118.439 E7.04509
G1 X122.22 Y119.021 E7.09838
G1 X121.81 Y119.557 E7.1516
G1 X121.34 Y120.042 E7.20488
G1 X120.816 Y120.467 E7.25809
G1 X120.246 Y120.828 E7.31131
G1 X119.637 Y121.119 E7.36455
G1 X118.997 Y121.335 E7.41783
G1 X118.337 Y121.475 E7.47104
G1 X117.491 Y121.538 E7.53796
G1 X79.509 Y121.538 E10.53384
G1 X78.835 Y121.498 E10.5871
G1 X78.171 Y121.379 E10.64031
G1 X77.525 Y121.182 E10.69358
G1 X76.908 Y120.91 E10.74676
G1 X76.326 Y120.567 E10.80005
G1 X75.79 Y120.157 E10.85328
G1 X75.305 Y119.687 E10.90655
G1 X74.88 Y119.163 E10.95976
G1 X74.519 Y118.593 E11.01298
G1 X74.228 Y117.984 E11.06622
G1 X74.012 Y117.344 E11.1195
G1 X73.872 Y116.684 E11.17271
G1 X73.809 Y115.838 E11.23963
G1 X73.809 Y81.162 E13.97475
G1 X73.849 Y80.488 E14.028
G1 X73.968 Y79.824 E14.08121
G1 X74.165 Y79.178 E14.13448
G1 X74.437 Y78.561 E14.18767
G1 X74.78 Y77.979 E14.24095
G1 X75.19 Y77.443 E14.29418
G1 X75.66 Y76.958 E14.34745
G0 F1440 X76.247 Y77.241
G1 F900 X76.763 Y76.865 E14.39781
G1 X77.321 Y76.555 E14.44816
G1 X77.914 Y76.318 E14.49853
G1 X78.531 Y76.157 E14.54883
G1 X79.164 Y76.074 E14.59919
G1 X79.509 Y76.062 E14.62641
G1 X117.491 Y76.063 E17.6223
G1 X118.128 Y76.103 E17.67264
G1 X118.756 Y76.222 E17.72306
G1 X119.363 Y76.419 E17.77339
G1 X119.941 Y76.69 E17.82375
G1 X120.481 Y77.031 E17.87412
G1 X120.973 Y77.437 E17.92444
G1 X121.412 Y77.901 E17.97482
G1 X121.788 Y78.417 E18.02518
G1 X122.098 Y78.975 E18.07553
G1 X122.335 Y79.568 E18.1259
G1 X122.496 Y80.186 E18.17627
G1 X122.579 Y80.819 E18.22663
G1 X122.591 Y81.163 E18.25378
G1 X122.591 Y115.838 E20.98882
G1 X122.551 Y116.475 E21.03916
G1 X122.432 Y117.102 E21.0895
G1 X122.235 Y117.71 E21.13991
G1 X121.964 Y118.288 E21.19026
G1 X121.623 Y118.827 E21.24057
G1 X121.217 Y119.32 E21.29095
G1 X120.753 Y119.759 E21.34133
G1 X120.237 Y120.135 E21.39169
G1 X119.679 Y120.445 E21.44204
G1 X119.086 Y120.682 E21.49241
G1 X118.469 Y120.843 E21.5427
G1 X117.836 Y120.926 E21.59306
G1 X117.491 Y120.938 E21.62029
G1 X79.509 Y120.938 E24.61617
G1 X78.872 Y120.898 E24.66652
G1 X78.245 Y120.779 E24.71685
G1 X77.637 Y120.582 E24.76727
G1 X77.059 Y120.311 E24.81762
G1 X76.52 Y119.97 E24.86793
G1 X76.027 Y119.564 E24.9183
G1 X75.588 Y119.1 E24.96869
G1 X75.212 Y118.584 E25.01905
G1 X74.902 Y118.026 E25.06939
G1 X74.665 Y117.433 E25.11977
G1 X74.504 Y116.816 E25.17006
G1 X74.421 Y116.183 E25.22042
G1 X74.409 Y115.838 E25.24765
G1 X74.409 Y81.162 E27.98277
G1 X74.449 Y80.525 E28.03311
G1 X74.568 Y79.898 E28.08345
G1 X74.765 Y79.29 E28.13386
G1 X75.036 Y78.712 E28.18421
G1 X75.377 Y78.173 E28.23452
G1 X75.783 Y77.68 E28.28489
G1 X76.247 Y77.241 E28.33528
G0 F1440 X76.374 Y77.933
G1 F900 X76.831 Y77.545 E28.38256
G1 X77.336 Y77.221 E28.42989
G1 X77.879 Y76.967 E28.47717
G1 X78.452 Y76.788 E28.52452
G1 X79.042 Y76.686 E28.57175
G1 X79.509 Y76.662 E28.60863
G1 X117.491 Y76.663 E31.60452
G1 X118.089 Y76.703 E31.65179
G1 X118.677 Y76.822 E31.69911
G1 X119.244 Y77.018 E31.74643
G1 X119.779 Y77.288 E31.7937
G1 X120.274 Y77.627 E31.84102
G1 X120.72 Y78.028 E31.88833
G1 X121.108 Y78.486 E31.93568
G1 X121.432 Y78.99 E31.98293
G1 X121.686 Y79.533 E32.03022
G1 X121.865 Y80.106 E32.07757
G1 X121.967 Y80.697 E32.12487
G1 X121.991 Y81.163 E32.16168
G1 X121.991 Y115.838 E34.89672
G1 X121.951 Y116.436 E34.94399
G1 X121.832 Y117.024 E34.99131
G1 X121.636 Y117.591 E35.03863
G1 X121.366 Y118.126 E35.0859
G1 X121.027 Y118.621 E35.13322
G1 X120.626 Y119.067 E35.18053
G1 X120.169 Y119.455 E35.22782
G1 X119.664 Y119.779 E35.27514
G1 X119.121 Y120.033 E35.32243
G1 X118.548 Y120.212 E35.36978
G1 X117.958 Y120.314 E35.417
G1 X117.491 Y120.338 E35.45389
G1 X79.509 Y120.338 E38.44977
G1 X78.911 Y120.298 E38.49704
G1 X78.323 Y120.179 E38.54436
G1 X77.756 Y119.983 E38.59168
G1 X77.221 Y119.713 E38.63895
G1 X76.726 Y119.374 E38.68627
G1 X76.28 Y118.973 E38.73358
G1 X75.892 Y118.516 E38.78087
G1 X75.568 Y118.011 E38.82819
G1 X75.314 Y117.468 E38.87548
G1 X75.135 Y116.895 E38.92283
G1 X75.033 Y116.305 E38.97005
G1 X75.009 Y115.838 E39.00694
G1 X75.009 Y81.162 E41.74206
G1 X75.049 Y80.564 E41.78933
G1 X75.168 Y79.976 E41.83665
G1 X75.364 Y79.409 E41.88397
G1 X75.634 Y78.874 E41.93124
G1 X75.973 Y78.379 E41.97856
G1 X76.374 Y77.933 E42.02587
G0 F1440 X76.963 Y78.208
G1 F900 X77.411 Y77.874 E42.06994
G1 X77.902 Y77.609 E42.11395
G1 X78.426 Y77.416 E42.158
G1 X78.972 Y77.299 E42.20204
G1 X79.509 Y77.262 E42.2445
G1 X117.491 Y77.263 E45.24038
G1 X118.048 Y77.303 E45.28443
G1 X118.593 Y77.422 E45.32843
G1 X119.116 Y77.618 E45.37249
G1 X119.606 Y77.886 E45.41654
G1 X120.052 Y78.221 E45.46054
G1 X120.445 Y78.617 E45.50454
G1 X120.779 Y79.065 E45.54862
G1 X121.044 Y79.556 E45.59263
G1 X121.238 Y80.08 E45.6367
G1 X121.354 Y80.626 E45.68073
G1 X121.391 Y81.163 E45.72318
G1 X121.391 Y115.838 E48.45822
G1 X121.351 Y116.395 E48.50227
G1 X121.232 Y116.94 E48.54627
G1 X121.036 Y117.463 E48.59033
G1 X120.768 Y117.952 E48.63431
G1 X120.433 Y118.399 E48.67837
G1 X120.037 Y118.792 E48.72238
G1 X119.589 Y119.126 E48.76645
G1 X119.098 Y119.391 E48.81046
G1 X118.574 Y119.584 E48.85451
G1 X118.028 Y119.701 E48.89855
G1 X117.491 Y119.738 E48.94101
G1 X79.509 Y119.738 E51.93689
G1 X78.952 Y119.698 E51.98094
G1 X78.407 Y119.579 E52.02494
G1 X77.884 Y119.383 E52.06899
G1 X77.395 Y119.115 E52.11298
G1 X76.948 Y118.78 E52.15704
G1 X76.555 Y118.384 E52.20104
G1 X76.221 Y117.936 E52.24512
G1 X75.956 Y117.445 E52.28913
G1 X75.763 Y116.921 E52.33317
G1 X75.646 Y116.375 E52.37722
G1 X75.609 Y115.838 E52.41968
G1 X75.609 Y81.162 E55.15479
G1 X75.649 Y80.605 E55.19884
G1 X75.768 Y80.06 E55.24284
G1 X75.964 Y79.537 E55.2869
G1 X76.232 Y79.048 E55.33088
G1 X76.567 Y78.601 E55.37494
G1 X76.963 Y78.208 E55.41895
G0 F1440 X77.16 Y78.844
G1 F900 X77.548 Y78.508 E55.45943
G1 X77.983 Y78.236 E55.4999
G1 X78.456 Y78.035 E55.54043
G1 X78.953 Y77.909 E55.58088
G1 X79.509 Y77.862 E55.62489
G1 X117.491 Y77.863 E58.62077
G1 X118.003 Y77.903 E58.66128
G1 X118.502 Y78.022 E58.70174
G1 X118.977 Y78.217 E58.74224
G1 X119.416 Y78.483 E58.78273
G1 X119.809 Y78.814 E58.82326
G1 X120.145 Y79.202 E58.86374
G1 X120.417 Y79.637 E58.90421
G1 X120.618 Y80.11 E58.94475
G1 X120.744 Y80.608 E58.98526
G1 X120.791 Y81.163 E59.0292
G1 X120.791 Y115.838 E61.76424
G1 X120.751 Y116.35 E61.80474
G1 X120.632 Y116.849 E61.84521
G1 X120.437 Y117.324 E61.88571
G1 X120.171 Y117.763 E61.9262
G1 X119.84 Y118.156 E61.96672
G1 X119.452 Y118.492 E62.00721
G1 X119.017 Y118.764 E62.04768
G1 X118.544 Y118.965 E62.08821
G1 X118.047 Y119.091 E62.12865
G1 X117.491 Y119.138 E62.17267
G1 X79.509 Y119.138 E65.16855
G1 X78.997 Y119.098 E65.20906
G1 X78.498 Y118.979 E65.24952
G1 X78.023 Y118.784 E65.29002
G1 X77.584 Y118.518 E65.33051
G1 X77.191 Y118.187 E65.37104
G1 X76.855 Y117.799 E65.41152
G1 X76.583 Y117.364 E65.45199
G1 X76.382 Y116.891 E65.49253
G1 X76.256 Y116.394 E65.53297
G1 X76.209 Y115.838 E65.57698
G1 X76.209 Y81.162 E68.3121
G1 X76.249 Y80.65 E68.3526
G1 X76.368 Y80.151 E68.39307
G1 X76.563 Y79.676 E68.43357
G1 X76.829 Y79.237 E68.47406
G1 X77.16 Y78.844 E68.51458
G1 F1500 E67.01458
G0 F1440 X80.338 Y81.991
G0 X90.511 Y102.638
G0 X90.853 Y103.175
G0 X90.925 Y103.106
;TYPE:WALL-INNER
G1 F1500 E68.57695
G1 F900 X91.378 Y103.488 E68.62369
G1 X91.648 Y103.649 E68.64848
G1 X97.037 Y106.42 E69.12645
G1 X97.554 Y106.624 E69.17029
G1 X97.928 Y106.708 E69.20052
G1 X98.231 Y106.741 E69.22456
G1 X98.648 Y106.76 E69.25749
G1 X98.906 Y106.727 E69.278
G1 X99.395 Y106.633 E69.31728
G1 X99.576 Y106.58 E69.33216
G1 X99.969 Y106.417 E69.36572
G1 X105.328 Y103.663 E69.84096
G1 X105.832 Y103.333 E69.88848
G1 X106.113 Y103.04 E69.9205
G1 X106.226 Y102.933 E69.93278
G1 X106.353 Y102.775 E69.94877
G1 X106.65 Y102.272 E69.99484
G1 X106.744 Y102.024 E70.01576
G1 X106.821 Y101.671 E70.04426
G1 X106.86 Y101.258 E70.07698
G1 X106.86 Y95.758 E70.5108
G1 X106.843 Y95.478 E70.53293
G1 X106.711 Y94.911 E70.57884
G1 X106.611 Y94.676 E70.59899
G1 X106.353 Y94.221 E70.64025
G1 X106.201 Y94.043 E70.65871
G1 X105.916 Y93.748 E70.69106
G1 X105.758 Y93.614 E70.7074
G1 X105.325 Y93.335 E70.74803
G1 X99.972 Y90.585 E71.22272
G1 X99.593 Y90.426 E71.25513
G1 X99.395 Y90.365 E71.27148
G1 X98.394 Y90.24 E71.35104
G1 X98.032 Y90.281 E71.37978
G1 X97.565 Y90.37 E71.41728
G1 X97.036 Y90.581 E71.4622
G1 X91.675 Y93.335 E71.93759
G1 X91.238 Y93.617 E71.97861
G1 X90.923 Y93.891 E72.01154
G1 X90.786 Y94.057 E72.02852
G1 X90.529 Y94.404 E72.06258
G1 X90.287 Y94.895 E72.10576
G1 X90.158 Y95.559 E72.15911
G1 X90.14 Y95.741 E72.17353
G1 X90.141 Y101.366 E72.61721
G1 X90.315 Y102.025 E72.67098
G1 X90.375 Y102.299 E72.6931
G1 X90.544 Y102.617 E72.7215
G1 X90.925 Y103.106 E72.7704
G0 F1440 X91.315 Y102.731
;TYPE:WALL-OUTER
G1 F900 X91.691 Y103.048 E72.80434
G1 X91.909 Y103.178 E72.82186
G1 X97.259 Y105.929 E73.23706
G1 X97.713 Y106.108 E73.27074
G1 X98.016 Y106.176 E73.29217
G1 X98.272 Y106.204 E73.30994
G1 X98.626 Y106.22 E73.3344
G1 X98.821 Y106.195 E73.34797
G1 X99.268 Y106.11 E73.37937
G1 X99.396 Y106.072 E73.38859
G1 X99.743 Y105.928 E73.41452
G1 X105.057 Y103.197 E73.82687
G1 X105.486 Y102.916 E73.86226
G1 X105.735 Y102.657 E73.88706
G1 X105.83 Y102.567 E73.89609
G1 X105.91 Y102.468 E73.90488
G1 X106.163 Y102.038 E73.93931
G1 X106.227 Y101.87 E73.95172
G1 X106.288 Y101.588 E73.97163
G1 X106.322 Y101.232 E73.99631
G1 X106.322 Y95.774 E74.37301
G1 X106.309 Y95.556 E74.38808
G1 X106.198 Y95.079 E74.42188
G1 X106.128 Y94.915 E74.43419
G1 X105.91 Y94.531 E74.46466
G1 X105.802 Y94.404 E74.47617
G1 X105.548 Y94.141 E74.5014
G1 X105.437 Y94.047 E74.51144
G1 X105.056 Y93.802 E74.5427
G1 X99.744 Y91.073 E74.95487
G1 X99.409 Y90.932 E74.97996
G1 X99.282 Y90.893 E74.98913
G1 X98.391 Y90.782 E75.0511
G1 X98.113 Y90.813 E75.0704
G1 X97.716 Y90.889 E75.0983
G1 X97.259 Y91.071 E75.13225
G1 X91.944 Y93.802 E75.54467
G1 X91.562 Y94.048 E75.57602
G1 X91.31 Y94.267 E75.59907
G1 X91.211 Y94.388 E75.60986
G1 X90.99 Y94.686 E75.63546
G1 X90.801 Y95.068 E75.66488
G1 X90.691 Y95.637 E75.70487
G1 X90.678 Y95.768 E75.71396
G1 X90.679 Y101.296 E76.09549
G1 X90.841 Y101.91 E76.13931
G1 X90.885 Y102.112 E76.15358
G1 X90.997 Y102.323 E76.17007
G1 X91.315 Y102.731 E76.20577
G0 F1440 X91.468 Y102.86
G0 X91.096 Y103.301
G0 X91.056 Y103.347
G0 X80.394 Y114.953
G0 X80.324 Y115.023
;TYPE:WALL-INNER
G1 F900 X80.324 Y81.977 E78.81232
G1 X116.676 Y81.977 E81.67963
G1 X116.676 Y115.023 E84.28618
G1 X80.324 Y115.023 E87.1535
G0 F1440 X79.786 Y115.561
;TYPE:WALL-OUTER
G1 F900 X79.786 Y81.439 E89.50849
G1 X117.214 Y81.439 E92.09166
G1 X117.214 Y115.561 E94.44665
G1 X79.786 Y115.561 E97.02981
G0 F1440 X79.786 Y115.361
G0 X80.363 Y114.984
G0 X80.914 Y114.433
;TYPE:SKIN
G1 F900 X80.914 Y82.567 E99.54329
G1 X116.086 Y82.567 E102.31753
G1 X116.086 Y114.433 E104.831
G1 X80.914 Y114.433 E107.60524
G0 F1440 X90.498 Y103.517
G1 F900 X91.034 Y103.97 E107.6606
G1 X91.361 Y104.165 E107.69063
G1 X96.793 Y106.958 E108.17241
G1 X97.381 Y107.19 E108.22226
G1 X97.832 Y107.291 E108.25872
G1 X98.185 Y107.329 E108.28672
G1 X98.672 Y107.352 E108.32518
G1 X98.999 Y107.309 E108.35119
G1 X99.534 Y107.207 E108.39415
G1 X99.773 Y107.137 E108.4138
G1 X100.217 Y106.952 E108.45174
G1 X105.625 Y104.174 E108.93129
G1 X106.211 Y103.79 E108.98655
G1 X106.53 Y103.458 E109.02286
G1 X106.661 Y103.334 E109.03709
G1 X106.839 Y103.111 E109.0596
G1 X107.183 Y102.528 E109.11299
G1 X107.311 Y102.193 E109.14128
G1 X107.405 Y101.762 E109.17607
G1 X107.45 Y101.286 E109.21379
G1 X107.45 Y95.74 E109.65123
G1 X107.429 Y95.393 E109.67865
G1 X107.274 Y94.728 E109.73251
G1 X107.14 Y94.414 E109.75944
G1 X106.839 Y93.881 E109.80772
G1 X106.638 Y93.646 E109.83211
G1 X106.32 Y93.317 E109.86821
G1 X106.11 Y93.139 E109.88992
G1 X105.62 Y92.823 E109.93591
G1 X100.221 Y90.05 E110.41465
G1 X99.794 Y89.871 E110.45117
G1 X99.519 Y89.786 E110.47387
G1 X98.398 Y89.646 E110.56298
G1 X97.943 Y89.697 E110.59909
G1 X97.399 Y89.801 E110.64278
G1 X96.792 Y90.044 E110.69435
G1 X91.38 Y92.824 E111.17425
G1 X90.882 Y93.145 E111.22099
G1 X90.498 Y93.478 E111.26108
G1 X90.321 Y93.693 E111.28304
G1 X90.024 Y94.095 E111.32247
G1 X89.723 Y94.705 E111.37612
G1 X89.574 Y95.474 E111.43791
G1 X89.55 Y95.712 E111.45677
G1 X89.551 Y101.443 E111.90881
G1 X89.739 Y102.151 E111.96659
G1 X89.816 Y102.504 E111.99509
G1 X90.047 Y102.939 E112.03394
G1 X90.498 Y103.517 E112.09177
G0 F1440 X81.908 Y114.152
G1 F900 X81.194 Y113.438 E112.17141
G0 F1440 X81.194 Y112.589
G1 F900 X82.756 Y114.152 E112.34571
G0 F1440 X83.605 Y114.152
G1 F900 X81.194 Y111.741 E112.61465
G0 F1440 X81.194 Y110.892
G1 F900 X84.454 Y114.152 E112.9783
G0 F1440 X85.302 Y114.152
G1 F900 X81.194 Y110.044 E113.43654
G0 F1440 X81.194 Y109.195
G1 F900 X86.151 Y114.152 E113.98948
G0 F1440 X86.999 Y114.152
G1 F900 X81.194 Y108.347 E114.63702
G0 F1440 X81.194 Y107.498
G1 F900 X87.848 Y114.152 E115.37926
G0 F1440 X88.696 Y114.152
G1 F900 X81.194 Y106.65 E116.21609
G0 F1440 X81.194 Y105.801
G1 F900 X89.545 Y114.152 E117.14763
G0 F1440 X90.393 Y114.152
G1 F900 X81.194 Y104.953 E118.17376
G0 F1440 X81.194 Y104.104
G1 F900 X91.242 Y114.152 E119.2946
G0 F1440 X92.09 Y114.152
G1 F900 X81.194 Y103.255 E120.51008
G0 F1440 X81.194 Y102.407
G1 F900 X92.939 Y114.152 E121.82021
G0 F1440 X93.787 Y114.152
G1 F900 X81.194 Y101.558 E123.22499
G0 F1440 X81.194 Y100.71
G1 F900 X94.636 Y114.152 E124.72442
G0 F1440 X95.484 Y114.152
G1 F900 X81.194 Y99.861 E126.3185
G0 F1440 X81.194 Y99.013
G1 F900 X96.333 Y114.152 E128.00723
G0 F1440 X97.181 Y114.152
G1 F900 X81.194 Y98.164 E129.7906
G0 F1440 X81.194 Y97.316
G1 F900 X98.03 Y114.152 E131.66863
G0 F1440 X98.878 Y114.152
G1 F900 X81.194 Y96.467 E133.6413
G0 F1440 X81.194 Y95.619
G1 F900 X99.727 Y114.152 E135.70862
G0 F1440 X100.576 Y114.152
G1 F900 X81.194 Y94.77 E137.87064
G0 F1440 X81.194 Y93.922
G1 F900 X89.458 Y102.186 E138.79248
G0 F1440 X89.27 Y101.15
G1 F900 X81.194 Y93.073 E139.69339
G0 F1440 X81.194 Y92.225
G1 F900 X89.27 Y100.301 E140.59426
G0 F1440 X89.27 Y99.453
G1 F900 X81.194 Y91.376 E141.49518
G0 F1440 X81.194 Y90.528
G1 F900 X89.27 Y98.604 E142.39604
G0 F1440 X89.27 Y97.756
G1 F900 X81.194 Y89.679 E143.29696
G0 F1440 X81.194 Y88.83
G1 F900 X89.27 Y96.907 E144.19787
G0 F1440 X89.27 Y96.059
G1 F900 X81.194 Y87.982 E145.09879
G0 F1440 X81.194 Y87.133
G1 F900 X89.329 Y95.269 E146.00629
G0 F1440 X89.477 Y94.568
G1 F900 X81.194 Y86.285 E146.93024
G0 F1440 X81.194 Y85.436
G1 F900 X89.758 Y94.001 E147.8856
G0 F1440 X90.111 Y93.505
G1 F900 X81.194 Y84.588 E148.88027
G0 F1440 X81.194 Y83.739
G1 F900 X90.531 Y93.077 E149.92185
G0 F1440 X91.023 Y92.72
G1 F900 X81.194 Y82.891 E151.01826
G0 F1440 X81.998 Y82.846
G1 F900 X91.565 Y92.413 E152.08544
G0 F1440 X92.125 Y92.125
G1 F900 X82.846 Y82.846 E153.12049
G0 F1440 X83.695 Y82.846
G1 F900 X92.686 Y91.837 E154.12342
G0 F1440 X93.246 Y91.549
G1 F900 X84.543 Y82.846 E155.09423
G0 F1440 X85.392 Y82.846
G1 F900 X93.806 Y91.261 E156.03285
