;FLAVOR:Marlin
;TIME:693
;Filament used: 0.391785m
;Layer height: 0.15
;Generated with Cura_SteamEngine 3.4.1
M190 S60
M104 S200
M109 S200
M82 ;absolute extrusion mode
G92 E0 ;zero the extruded length
G1 X190 Y0 F7000 ;move to priming position
G1 Z2 ;raise bed
G1 F200 E10 ;extrude 10 mm of feed stock
G1 Z15 ;raise bed after priming
G92 E0 ;zero the extruded length again
G1 F7000;
G92 E0
G1 F1500 E-1.5
;LAYER_COUNT:18
;LAYER:0
M107
M204 S270
G0 F1440 X78.95 Y78.119 Z0.31
;TYPE:SKIRT
G1 F1500 E0.06236
G1 F900 X79.474 Y77.693 E0.11563
G1 X80.044 Y77.331 E0.16889
G1 X80.653 Y77.04 E0.22213
G1 X81.292 Y76.823 E0.27536
G1 X81.952 Y76.682 E0.32859
G1 X82.8 Y76.618 E0.39567
G1 X114.165 Y76.593 E2.86963
G1 X114.839 Y76.632 E2.92288
G1 X115.504 Y76.751 E2.97616
G1 X116.149 Y76.948 E3.02936
G1 X116.767 Y77.219 E3.08259
G1 X117.349 Y77.562 E3.13587
G1 X117.886 Y77.971 E3.18911
G1 X118.371 Y78.44 E3.24233
G1 X118.797 Y78.964 E3.2956
G1 X119.158 Y79.534 E3.34881
G1 X119.449 Y80.143 E3.40205
G1 X119.666 Y80.782 E3.45528
G1 X119.806 Y81.443 E3.50858
G1 X119.87 Y82.288 E3.57542
G1 X119.896 Y114.677 E6.13015
G1 X119.857 Y115.351 E6.1834
G1 X119.738 Y116.016 E6.23668
G1 X119.541 Y116.661 E6.28988
G1 X119.27 Y117.279 E6.3431
G1 X118.927 Y117.861 E6.39639
G1 X118.518 Y118.398 E6.44963
G1 X118.049 Y118.883 E6.50285
G1 X117.525 Y119.309 E6.55612
G1 X116.955 Y119.67 E6.60933
G1 X116.346 Y119.961 E6.66257
G1 X115.707 Y120.178 E6.7158
G1 X115.046 Y120.318 E6.76909
G1 X114.197 Y120.382 E6.83625
G1 X82.848 Y120.386 E9.30895
G1 X82.174 Y120.346 E9.3622
G1 X81.51 Y120.227 E9.41541
G1 X80.864 Y120.03 E9.46868
G1 X80.246 Y119.758 E9.52194
G1 X79.665 Y119.415 E9.57516
G1 X79.128 Y119.006 E9.6284
G1 X78.644 Y118.536 E9.68162
G1 X78.218 Y118.012 E9.73488
G1 X77.857 Y117.441 E9.78817
G1 X77.567 Y116.832 E9.84137
G1 X77.35 Y116.193 E9.8946
G1 X77.21 Y115.533 E9.94782
G1 X77.147 Y114.693 E10.01426
G1 X77.105 Y82.325 E12.56733
G1 X77.144 Y81.652 E12.6205
G1 X77.263 Y80.987 E12.67379
G1 X77.459 Y80.341 E12.72704
G1 X77.73 Y79.723 E12.78027
G1 X78.072 Y79.141 E12.83351
G1 X78.481 Y78.604 E12.88675
G1 X78.95 Y78.119 E12.93997
G0 F1440 X79.538 Y78.402
G1 F900 X80.053 Y78.024 E12.99036
G1 X80.611 Y77.714 E13.04071
G1 X81.203 Y77.476 E13.09103
G1 X81.821 Y77.314 E13.14143
G1 X82.454 Y77.23 E13.19179
G1 X82.801 Y77.218 E13.21918
G1 X114.166 Y77.193 E15.69314
G1 X114.803 Y77.232 E15.74348
G1 X115.43 Y77.351 E15.79382
G1 X116.038 Y77.547 E15.8442
G1 X116.616 Y77.818 E15.89456
G1 X117.156 Y78.159 E15.94493
G1 X117.649 Y78.564 E15.99526
G1 X118.088 Y79.028 E16.04564
G1 X118.465 Y79.543 E16.09598
G1 X118.775 Y80.101 E16.14633
G1 X119.013 Y80.694 E16.19673
G1 X119.175 Y81.311 E16.24705
G1 X119.258 Y81.944 E16.2974
G1 X119.27 Y82.289 E16.32463
G1 X119.296 Y114.678 E18.87936
G1 X119.257 Y115.315 E18.9297
G1 X119.138 Y115.942 E18.98004
G1 X118.942 Y116.55 E19.03043
G1 X118.671 Y117.128 E19.08078
G1 X118.33 Y117.668 E19.13115
G1 X117.925 Y118.161 E19.18148
G1 X117.461 Y118.6 E19.23186
G1 X116.946 Y118.977 E19.2822
G1 X116.388 Y119.287 E19.33255
G1 X115.795 Y119.525 E19.38295
G1 X115.178 Y119.687 E19.43327
G1 X114.545 Y119.77 E19.48363
G1 X114.197 Y119.782 E19.51109
G1 X82.848 Y119.786 E21.98379
G1 X82.21 Y119.746 E22.03421
G1 X81.583 Y119.627 E22.08455
G1 X80.976 Y119.43 E22.13488
G1 X80.398 Y119.159 E22.18524
G1 X79.858 Y118.818 E22.23561
G1 X79.365 Y118.413 E22.28594
G1 X78.927 Y117.948 E22.33632
G1 X78.55 Y117.433 E22.38667
G1 X78.24 Y116.875 E22.43701
G1 X78.003 Y116.282 E22.48739
G1 X77.842 Y115.664 E22.53776
G1 X77.759 Y115.031 E22.58811
G1 X77.747 Y114.693 E22.61479
G1 X77.705 Y82.325 E25.16787
G1 X77.744 Y81.687 E25.21828
G1 X77.863 Y81.06 E25.26862
G1 X78.058 Y80.452 E25.31898
G1 X78.329 Y79.874 E25.36934
G1 X78.669 Y79.334 E25.41967
G1 X79.074 Y78.841 E25.46999
G1 X79.538 Y78.402 E25.52038
G0 F1440 X79.666 Y79.094
G1 F900 X80.123 Y78.705 E25.56771
G1 X80.627 Y78.38 E25.61502
G1 X81.17 Y78.126 E25.6623
G1 X81.742 Y77.945 E25.70962
G1 X82.333 Y77.843 E25.75693
G1 X82.801 Y77.818 E25.79389
G1 X114.166 Y77.793 E28.26785
G1 X114.765 Y77.832 E28.3152
G1 X115.353 Y77.951 E28.36252
G1 X115.919 Y78.147 E28.40977
G1 X116.455 Y78.416 E28.45707
G1 X116.95 Y78.755 E28.50439
G1 X117.396 Y79.156 E28.5517
G1 X117.785 Y79.613 E28.59904
G1 X118.109 Y80.117 E28.6463
G1 X118.363 Y80.66 E28.69358
G1 X118.543 Y81.232 E28.74088
G1 X118.645 Y81.823 E28.78818
G1 X118.67 Y82.289 E28.82499
G1 X118.696 Y114.678 E31.37972
G1 X118.657 Y115.277 E31.42707
G1 X118.538 Y115.865 E31.47439
G1 X118.342 Y116.431 E31.52163
G1 X118.073 Y116.967 E31.56894
G1 X117.734 Y117.462 E31.61626
G1 X117.333 Y117.908 E31.66357
G1 X116.876 Y118.297 E31.7109
G1 X116.372 Y118.621 E31.75816
G1 X115.829 Y118.875 E31.80545
G1 X115.257 Y119.055 E31.85274
G1 X114.666 Y119.157 E31.90005
G1 X114.197 Y119.182 E31.9371
G1 X82.848 Y119.186 E34.40979
G1 X82.249 Y119.146 E34.45714
G1 X81.662 Y119.027 E34.50439
G1 X81.095 Y118.831 E34.55171
G1 X80.559 Y118.561 E34.59904
G1 X80.064 Y118.223 E34.64632
G1 X79.619 Y117.821 E34.69362
G1 X79.231 Y117.364 E34.74091
G1 X78.907 Y116.859 E34.78824
G1 X78.653 Y116.316 E34.83552
G1 X78.473 Y115.744 E34.88282
G1 X78.371 Y115.153 E34.93012
G1 X78.347 Y114.692 E34.96654
G1 X78.305 Y82.324 E37.51961
G1 X78.344 Y81.725 E37.56696
G1 X78.463 Y81.138 E37.6142
G1 X78.658 Y80.571 E37.66149
G1 X78.927 Y80.035 E37.7088
G1 X79.265 Y79.539 E37.75614
G1 X79.666 Y79.094 E37.80339
G0 F1440 X80.255 Y79.367
G1 F900 X80.703 Y79.033 E37.84746
G1 X81.193 Y78.767 E37.89144
G1 X81.717 Y78.573 E37.93551
G1 X82.262 Y78.456 E37.97948
G1 X82.802 Y78.418 E38.02218
G1 X114.167 Y78.393 E40.49614
G1 X114.724 Y78.433 E40.54019
G1 X115.269 Y78.551 E40.58417
G1 X115.792 Y78.746 E40.6282
G1 X116.282 Y79.014 E40.67225
G1 X116.728 Y79.349 E40.71625
G1 X117.122 Y79.745 E40.76031
G1 X117.456 Y80.192 E40.80432
G1 X117.722 Y80.683 E40.84837
G1 X117.916 Y81.207 E40.89244
G1 X118.032 Y81.752 E40.93639
G1 X118.07 Y82.29 E40.97893
G1 X118.096 Y114.679 E43.53366
G1 X118.056 Y115.236 E43.57771
G1 X117.938 Y115.781 E43.62169
G1 X117.743 Y116.304 E43.66572
G1 X117.475 Y116.794 E43.70977
G1 X117.14 Y117.24 E43.75377
G1 X116.744 Y117.634 E43.79783
G1 X116.297 Y117.968 E43.84184
G1 X115.806 Y118.234 E43.88589
G1 X115.282 Y118.428 E43.92996
G1 X114.737 Y118.544 E43.97391
G1 X114.196 Y118.582 E44.01669
G1 X82.847 Y118.586 E46.48939
G1 X82.291 Y118.546 E46.53336
G1 X81.745 Y118.427 E46.57743
G1 X81.223 Y118.232 E46.62139
G1 X80.733 Y117.963 E46.66548
G1 X80.287 Y117.628 E46.70947
G1 X79.893 Y117.232 E46.75353
G1 X79.56 Y116.784 E46.79756
G1 X79.294 Y116.294 E46.84154
G1 X79.101 Y115.77 E46.88559
G1 X78.984 Y115.224 E46.92963
G1 X78.947 Y114.691 E46.97177
G1 X78.905 Y82.323 E49.52485
G1 X78.944 Y81.766 E49.56889
G1 X79.063 Y81.221 E49.61289
G1 X79.258 Y80.698 E49.65692
G1 X79.525 Y80.208 E49.70093
G1 X79.86 Y79.761 E49.74499
G1 X80.255 Y79.367 E49.789
G0 F1440 X80.453 Y80.003
G1 F900 X80.84 Y79.666 E49.82947
G1 X81.276 Y79.394 E49.87001
G1 X81.748 Y79.192 E49.9105
G1 X82.245 Y79.066 E49.95094
G1 X82.802 Y79.018 E49.99504
G1 X114.167 Y78.993 E52.469
G1 X114.679 Y79.033 E52.50951
G1 X115.179 Y79.151 E52.55003
G1 X115.654 Y79.345 E52.5905
G1 X116.093 Y79.611 E52.63099
G1 X116.486 Y79.942 E52.67152
G1 X116.823 Y80.33 E52.71205
G1 X117.095 Y80.765 E52.75252
G1 X117.297 Y81.237 E52.79301
G1 X117.422 Y81.735 E52.83351
G1 X117.47 Y82.29 E52.87745
G1 X117.496 Y114.679 E55.43218
G1 X117.456 Y115.191 E55.47269
G1 X117.338 Y115.691 E55.51321
G1 X117.144 Y116.166 E55.55368
G1 X116.878 Y116.605 E55.59417
G1 X116.547 Y116.998 E55.6347
G1 X116.159 Y117.334 E55.67518
G1 X115.724 Y117.607 E55.71569
G1 X115.252 Y117.809 E55.75619
G1 X114.754 Y117.934 E55.79669
G1 X114.196 Y117.982 E55.84086
G1 X82.847 Y117.986 E58.31356
G1 X82.336 Y117.946 E58.35399
G1 X81.836 Y117.827 E58.39453
G1 X81.361 Y117.633 E58.435
G1 X80.922 Y117.366 E58.47553
G1 X80.53 Y117.035 E58.51599
G1 X80.193 Y116.647 E58.55653
G1 X79.921 Y116.212 E58.597
G1 X79.72 Y115.74 E58.63746
G1 X79.594 Y115.242 E58.67798
G1 X79.547 Y114.69 E58.72168
G1 X79.505 Y82.322 E61.27475
G1 X79.544 Y81.81 E61.31525
G1 X79.662 Y81.311 E61.3557
G1 X79.857 Y80.835 E61.39627
G1 X80.122 Y80.396 E61.43672
G1 X80.453 Y80.003 E61.47724
G1 F1500 E59.97724
G0 F1440 X83.633 Y83.146
G0 X83.997 Y108.253
G0 X84.067 Y108.183
;TYPE:WALL-INNER
G1 F1500 E61.53961
G1 F900 X112.947 Y108.162 E63.81756
G1 X112.935 Y91.494 E65.13227
G1 X84.056 Y91.515 E67.41014
G1 X84.067 Y108.183 E68.72486
G0 F1440 X84.605 Y107.645
;TYPE:WALL-OUTER
G1 F900 X84.867 Y107.645 E68.74294
G1 X112.147 Y107.624 E70.62572
G1 X112.409 Y107.624 E70.6438
G1 X112.409 Y107.362 E70.6555
G1 X112.397 Y92.032 E71.71353
G1 X84.594 Y92.053 E73.6324
G1 X84.605 Y107.383 E74.69043
G1 X84.605 Y107.645 E74.70213
G0 F1440 X84.805 Y107.645
G0 X84.805 Y108.222
G0 X84.804 Y108.283
G0 X83.715 Y113.822
G0 X83.645 Y113.892
;TYPE:WALL-INNER
G1 F900 X83.641 Y108.184 E75.15236
G1 X83.627 Y91.516 E76.09068
G1 X83.619 Y83.132 E76.75198
G1 X113.356 Y83.107 E79.09753
G1 X113.362 Y91.493 E79.75898
G1 X113.376 Y108.161 E80.6984
G1 X113.381 Y113.569 E81.12496
G1 X113.381 Y113.868 E81.14855
G1 X113.082 Y113.868 E81.16381
G1 X83.645 Y113.892 E83.4857
G0 F1440 X83.107 Y114.43
;TYPE:WALL-OUTER
G1 F900 X83.081 Y82.856 E85.66484
G1 X83.081 Y82.594 E85.68292
G1 X83.343 Y82.594 E85.69462
G1 X113.632 Y82.569 E87.78507
G1 X113.894 Y82.569 E87.80315
G1 X113.894 Y82.831 E87.81485
G1 X113.919 Y114.144 E89.97598
G1 X113.919 Y114.406 E89.99406
G1 X113.657 Y114.406 E90.00576
G1 X83.107 Y114.43 E92.11422
G0 F1440 X83.107 Y114.23
G0 X83.685 Y113.852
G0 X84.235 Y113.302
;TYPE:SKIN
G1 F900 X84.23 Y108.773 E92.47145
G1 X112.787 Y108.752 E94.72393
G1 X112.791 Y113.278 E95.08092
G1 X84.235 Y113.302 E97.33332
G0 F1440 X85.018 Y113.02
G1 F900 X84.514 Y112.515 E97.38959
G0 F1440 X84.512 Y111.665
G1 F900 X85.866 Y113.019 E97.54063
G0 F1440 X86.714 Y113.018
G1 F900 X84.511 Y110.816 E97.78632
G0 F1440 X84.51 Y109.966
G1 F900 X87.562 Y113.018 E98.12676
G0 F1440 X88.41 Y113.017
G1 F900 X84.509 Y109.117 E98.56185
G0 F1440 X85.293 Y109.052
G1 F900 X89.258 Y113.016 E99.00409
G0 F1440 X90.105 Y113.016
G1 F900 X86.141 Y109.051 E99.44632
G0 F1440 X86.988 Y109.05
G1 F900 X90.953 Y113.015 E99.88861
G0 F1440 X91.801 Y113.014
G1 F900 X87.836 Y109.05 E100.33084
G0 F1440 X88.684 Y109.049
G1 F900 X92.649 Y113.014 E100.77313
G0 F1440 X93.497 Y113.013
G1 F900 X89.532 Y109.048 E101.21541
G0 F1440 X90.38 Y109.047
G1 F900 X94.345 Y113.012 E101.6577
G0 F1440 X95.192 Y113.011
G1 F900 X91.228 Y109.047 E102.09988
G0 F1440 X92.076 Y109.047
G1 F900 X96.04 Y113.011 E102.54206
G0 F1440 X96.887 Y113.009
G1 F900 X92.924 Y109.046 E102.98412
G0 F1440 X93.772 Y109.045
G1 F900 X97.735 Y113.009 E103.42624
G0 F1440 X98.583 Y113.008
G1 F900 X94.62 Y109.045 E103.86831
G0 F1440 X95.467 Y109.044
G1 F900 X99.431 Y113.007 E104.31043
G0 F1440 X100.279 Y113.006
G1 F900 X96.315 Y109.043 E104.75255
G0 F1440 X97.163 Y109.042
G1 F900 X101.126 Y113.006 E105.19467
G0 F1440 X101.974 Y113.005
G1 F900 X98.012 Y109.042 E105.63668
G0 F1440 X98.859 Y109.042
G1 F900 X102.822 Y113.004 E106.07869
G0 F1440 X103.67 Y113.004
G1 F900 X99.707 Y109.041 E106.52075
G0 F1440 X100.555 Y109.04
G1 F900 X104.518 Y113.003 E106.96282
G0 F1440 X105.365 Y113.002
G1 F900 X101.403 Y109.04 E107.40477
G0 F1440 X102.251 Y109.039
G1 F900 X106.213 Y113.002 E107.84678
G0 F1440 X107.061 Y113.001
G1 F900 X103.098 Y109.038 E108.28885
G0 F1440 X103.946 Y109.037
G1 F900 X107.909 Y113 E108.73091
G0 F1440 X108.757 Y112.999
G1 F900 X104.794 Y109.037 E109.17292
G0 F1440 X105.643 Y109.037
G1 F900 X109.605 Y112.999 E109.61487
G0 F1440 X110.452 Y112.998
G1 F900 X106.49 Y109.036 E110.05683
G0 F1440 X107.338 Y109.035
G1 F900 X111.3 Y112.997 E110.49878
G0 F1440 X112.148 Y112.997
G1 F900 X108.186 Y109.035 E110.94074
G0 F1440 X109.034 Y109.034
G1 F900 X112.51 Y112.51 E111.32848
G0 F1440 X112.509 Y111.66
G1 F900 X109.882 Y109.033 E111.62151
G0 F1440 X110.73 Y109.033
G1 F900 X112.508 Y110.811 E111.81985
G0 F1440 X112.507 Y109.962
G1 F900 X111.577 Y109.032 E111.92359
G0 F1440 X84.039 Y108.211
G0 X84.028 Y91.487
G0 X112.773 Y90.904
G1 F900 X84.216 Y90.925 E114.17606
G1 X84.209 Y83.722 E114.74421
G1 X112.766 Y83.697 E116.99668
G1 X112.773 Y90.904 E117.56514
G0 F1440 X111.979 Y83.978
G1 F900 X112.485 Y84.484 E117.62159
G0 F1440 X112.487 Y85.334
G1 F900 X111.131 Y83.978 E117.77285
G0 F1440 X110.283 Y83.979
G1 F900 X112.487 Y86.183 E118.0187
G0 F1440 X112.488 Y87.032
G1 F900 X109.436 Y83.98 E118.35914
G0 F1440 X108.588 Y83.98
G1 F900 X112.489 Y87.882 E118.79435
G0 F1440 X112.49 Y88.732
G1 F900 X107.74 Y83.981 E119.32426
G0 F1440 X106.892 Y83.982
G1 F900 X112.491 Y89.581 E119.94881
G0 F1440 X112.492 Y90.43
G1 F900 X106.045 Y83.983 E120.66797
G0 F1440 X105.197 Y83.984
G1 F900 X111.837 Y90.624 E121.40864
G0 F1440 X110.989 Y90.624
G1 F900 X104.349 Y83.985 E122.14927
G0 F1440 X103.502 Y83.985
G1 F900 X110.141 Y90.625 E122.88989
G0 F1440 X109.293 Y90.626
G1 F900 X102.654 Y83.986 E123.63052
G0 F1440 X101.806 Y83.987
G1 F900 X108.446 Y90.627 E124.37119
G0 F1440 X107.597 Y90.627
G1 F900 X100.958 Y83.988 E125.11176
G0 F1440 X100.11 Y83.988
G1 F900 X106.749 Y90.627 E125.85233
G0 F1440 X105.901 Y90.628
G1 F900 X99.262 Y83.989 E126.5929
G0 F1440 X98.415 Y83.99
G1 F900 X105.054 Y90.629 E127.33347
G0 F1440 X104.206 Y90.629
G1 F900 X97.567 Y83.99 E128.07403
G0 F1440 X96.719 Y83.991
G1 F900 X103.358 Y90.63 E128.8146
G0 F1440 X102.509 Y90.63
G1 F900 X95.871 Y83.992 E129.55506
G0 F1440 X95.023 Y83.992
G1 F900 X101.662 Y90.631 E130.29563
G0 F1440 X100.814 Y90.631
G1 F900 X94.176 Y83.993 E131.03608
G0 F1440 X93.328 Y83.994
G1 F900 X99.966 Y90.632 E131.77654
G0 F1440 X99.118 Y90.633
G1 F900 X92.481 Y83.995 E132.51694
G0 F1440 X91.633 Y83.996
G1 F900 X98.27 Y90.634 E133.25734
G0 F1440 X97.423 Y90.634
G1 F900 X90.785 Y83.997 E133.99774
G0 F1440 X89.937 Y83.997
G1 F900 X96.574 Y90.634 E134.73808
G0 F1440 X95.726 Y90.635
G1 F900 X89.089 Y83.998 E135.47843
G0 F1440 X88.241 Y83.999
G1 F900 X94.878 Y90.636 E136.21877
G0 F1440 X94.031 Y90.636
G1 F900 X87.394 Y84 E136.95906
G0 F1440 X86.546 Y84
G1 F900 X93.183 Y90.637 E137.69941
G0 F1440 X92.335 Y90.638
G1 F900 X85.698 Y84.001 E138.43975
G0 F1440 X84.85 Y84.002
M104 S190
G1 F900 X91.487 Y90.639 E139.1801
G0 F1440 X90.639 Y90.639
G1 F900 X84.488 Y84.488 E139.86623
G0 F1440 X84.49 Y85.338
G1 F900 X89.791 Y90.639 E140.45754
G0 F1440 X88.943 Y90.64
G1 F900 X84.49 Y86.187 E140.95427
G0 F1440 X84.492 Y87.037
G1 F900 X88.095 Y90.641 E141.35623
G0 F1440 X87.247 Y90.641
G1 F900 X84.492 Y87.887 E141.66349
G0 F1440 X84.493 Y88.736
G1 F900 X86.399 Y90.642 E141.8761
G0 F1440 X85.551 Y90.642
G1 F900 X84.495 Y89.586 E141.9939
G0 F1440 X84.495 Y90.435
G1 F900 X84.703 Y90.643 E142.0171
G0 F1440 X84.028 Y91.487
G0 X83.966 Y107.549
G0 X84.507 Y107.549
;TIME_ELAPSED:143.498574
;LAYER:1
M140 S60
M106 S63.8
M204 S385
G0 F3120 X84.507 Y107.549 Z0.46
M204 S328
;TYPE:WALL-INNER
G1 F1635 X84.507 Y107.748 E142.02216
G1 X84.706 Y107.748 E142.02544
G1 X112.506 Y107.727 E142.73278
G1 X112.495 Y92.127 E143.12971
G1 X112.495 Y91.928 E143.13477
G1 X112.296 Y91.928 E143.13805
G1 X84.497 Y91.95 E143.84537
G1 X84.507 Y107.549 E144.24227
M204 S385
G0 F3120 X84.858 Y107.397
M204 S270
;TYPE:WALL-OUTER
G1 F1320 X85.033 Y107.397 E144.24616
G1 X112.155 Y107.376 E144.84999
G1 X112.144 Y92.454 E145.18221
G1 X112.144 Y92.279 E145.18611
G1 X111.969 Y92.279 E145.18863
G1 X84.848 Y92.301 E145.79244
G1 X84.858 Y107.222 E146.12463
G1 X84.858 Y107.397 E146.12715
M204 S385
G0 F3120 X85.033 Y107.397
G0 X85.058 Y107.397
G0 X85.058 Y107.782
G0 X85.057 Y107.848
G0 X83.275 Y114.257
G0 X83.205 Y114.327
M204 S328
;TYPE:WALL-INNER
G1 F1635 X83.178 Y82.896 E146.92688
G1 X83.178 Y82.697 E146.93194
G1 X83.377 Y82.697 E146.93522
G1 X113.796 Y82.672 E147.7092
G1 X113.822 Y114.104 E148.50896
G1 X113.822 Y114.303 E148.51402
G1 X113.623 Y114.303 E148.5173
G1 X83.205 Y114.327 E149.29125
M204 S385
G0 F3120 X82.854 Y114.678
M204 S270
;TYPE:WALL-OUTER
G1 F1320 X82.827 Y82.521 E150.00718
G1 X82.827 Y82.346 E150.01108
G1 X83.002 Y82.346 E150.0136
